X:683
T:Reel 683
M:4/4
K:Gmaj
L:1/8
G2BG BddB|cBcd efge|GBAB GBdg||edge dcBA:||2ecec BGG2|g2bg agbg|dgfg ac'ba|g2bg fgeg|dega b2g2|gfgb ageg|dgbg agef|gfgd egdB|cedc BGG2|
